X: 560
T: Dil Sana Şimdi Bendedir
C: Tanburî İsak
O: Turkey
F: http://compmusic.upf.edu/node/140
N: buselik--sarki--aksak--dil_sana--tanburi_isak
N: makam= buselik
N: form= sarki
N: usul= aksak = 9/8
M: 9/8
L: 1/16
K: C    
Q: 1/4=132
%%MIDI tuningsystem comma53
edcB dcBA cBA^G ABcd e2 | d_7/8e dede/^f/ eddc/d/ cBc4z2  | 
w:  ARANAĞME  |   | 
dcBc dfed edcB dcBA G2 | Bc BcBc BAcB A^GA4z2  | 
w:   |   | 
edcB dcBA cBA^G ABcd e2 | d_7/8e dede/^f/ eddc/d/ cBc4z2  | 
w:  ARANAĞME  |   | 
dcBc dfed edcB dcBA G2 | Bc BcBc BAcB A^GA4z2  | 
w:   |   | 
e2z2 e2gf fe2d edcB c2 | dc Bcd3/2f/ edcB ABA2 AcBc  | 
w:  *  Dil  sa *  na  *  *  şim  |  di  *  *  *  ben *  *  *  de *  *  *  dir    | 
BcBA dcBc d4 efed c2 | z2 d4 efe2 dcde ^fgab  | 
w:  *  *  *  *  Yo *  *  lu na  can   |  üf *  *  ken *  *  de  | 
a2g^f e2g=f feed dfed cB | A2 z2e2 gffe2ded cBc2  | 
w:  dir  *  *  *  a *  man  *  a *  man    |  *  Dil  sa *  na  *  *  şim  | 
dcBc d3/2f/ed cBAB A2Ac Bc | Bc BAdc Bcd4ef edc2  | 
w:  di  *  *  *  ben *  *  *  de *  *  *  dir    |  *  *  *  *  Yo *  *  lu na  can   | 
z2d4ef e2dc de^fg ab | a2 g^fe4ag fga4z2  | 
w:  üf *  *  ken *  *  de  |  dir  *  *  *  ca *  *  *  nım    | 
a4 ^fg3 a4 c'ba2 gf | ef eded e^fgf gac'b a2gf  | 
w:  Ah  *  a çık  de  |  ğil  *  *  *  ya *  *  *  *  *  ne *  dir    | 
e2z2 d2a2 ag2_b agfe ed | de dcd3/2f/ eddc cBc4z2  | 
w:  *  İn sa fa  *  *  gel   |  lut *  *  *  fey *  *  *  le  *  *  *  gel    | 
G2cB c2ed dcBA BcA4 | G^F GABA GFE2 z2AB2AG2  | 
w:  Cevr_ et *  *  *  *  me  *  *  *  ca  |  na  *  *  *  *  *  *  *  *  böy *  *  le   | 
A_7/8BAG A=B^cd edc_7/8B AG^FG FA | \
w:  gel    | 
G2 z2c3edc BABc A4  | 
w:  *  Var sa  gü *  *  *  na  | 
g^fga bag=f eddc dcBA G2 | dc BcBc BAcB A^GA4z2  | 
w:  hım  *  *  *  *  *  *  *  *  *  *  *  söy *  *  *  le   |  gel  *  *  *  *  *  *  *  ca *  *  *  nım    | 
|


